assets/images/vector/icons/ball_basket_icon.svg

<svg fill="none" height="59" viewBox="0 0 59 59" width="59" xmlns="http://www.w3.org/2000/svg"><g stroke="#111" stroke-linecap="round" stroke-linejoin="round" stroke-width="10"><path d="m28.0059 5.03003c-1.6467 1.45667-11.32 10.30337-11.6534 24.86337-.2866 12.53 6.53 20.97 8.2767 23.01"/><path d="m5.06641 30.9401c3.97 1.37 8.74999 2.6066 14.22669 3.2233 14.93 1.68 27.1166-2.14 34.04-4.9967"/><path d="m9.65625 43.4234s3.82335-2.2266 8.39995-2.2266c7.3434 0 15.5534 7.6233 27.46 5.7566"/><path d="m9.65625 14.9067c2.32335 5.0933.48335 10.6733 7.07995 10.6733 13.5434 0 15.7634-13.29 29.7267-13.29"/><path d="m29.1667 53.3333c13.3468 0 24.1666-10.8198 24.1666-24.1666 0-13.3469-10.8198-24.1667-24.1666-24.1667-13.3469 0-24.1667 10.8198-24.1667 24.1667 0 13.3468 10.8198 24.1666 24.1667 24.1666z"/></g></svg>

<svg width="59" height="59" viewBox="0 0 59 59" fill="none" xmlns="http://www.w3.org/2000/svg">
<path d="M28.0059 5.03003C26.3592 6.4867 16.6859 15.3334 16.3525 29.8934C16.0659 42.4234 22.8825 50.8634 24.6292 52.9034" stroke="#111111" stroke-width="10" stroke-linecap="round" stroke-linejoin="round"/>
<path d="M5.06641 30.9401C9.03641 32.3101 13.8164 33.5467 19.2931 34.1634C34.2231 35.8434 46.4097 32.0234 53.3331 29.1667" stroke="#111111" stroke-width="10" stroke-linecap="round" stroke-linejoin="round"/>
<path d="M9.65625 43.4234C9.65625 43.4234 13.4796 41.1968 18.0562 41.1968C25.3996 41.1968 33.6096 48.8201 45.5162 46.9534" stroke="#111111" stroke-width="10" stroke-linecap="round" stroke-linejoin="round"/>
<path d="M9.65625 14.9067C11.9796 20 10.1396 25.58 16.7362 25.58C30.2796 25.58 32.4996 12.29 46.4629 12.29" stroke="#111111" stroke-width="10" stroke-linecap="round" stroke-linejoin="round"/>
<path d="M29.1667 53.3333C42.5135 53.3333 53.3333 42.5135 53.3333 29.1667C53.3333 15.8198 42.5135 5 29.1667 5C15.8198 5 5 15.8198 5 29.1667C5 42.5135 15.8198 53.3333 29.1667 53.3333Z" stroke="#111111" stroke-width="10" stroke-linecap="round" stroke-linejoin="round"/>
</svg>
